src/activities/babyshapes/resource/food/french_croissant.svg

<?xml version="1.0" encoding="UTF-8" standalone="no"?>
<svg
   xmlns:dc="http://purl.org/dc/elements/1.1/"
   xmlns:cc="http://creativecommons.org/ns#"
   xmlns:rdf="http://www.w3.org/1999/02/22-rdf-syntax-ns#"
   xmlns:svg="http://www.w3.org/2000/svg"
   xmlns="http://www.w3.org/2000/svg"
   id="svg2"
   version="1.1"
   width="100"
   height="100">
  <metadata
     id="metadata8">
    <rdf:RDF>
      <cc:Work
         rdf:about="">
        <dc:format>image/svg+xml</dc:format>
        <dc:type
           rdf:resource="http://purl.org/dc/dcmitype/StillImage" />
        <dc:title></dc:title>
        <dc:date>2021</dc:date>
        <dc:creator>
          <cc:Agent>
            <dc:title>Timothée Giet</dc:title>
          </cc:Agent>
        </dc:creator>
        <cc:license
           rdf:resource="http://creativecommons.org/licenses/by-sa/4.0/" />
      </cc:Work>
      <cc:License
         rdf:about="http://creativecommons.org/licenses/by-sa/4.0/">
        <cc:permits
           rdf:resource="http://creativecommons.org/ns#Reproduction" />
        <cc:permits
           rdf:resource="http://creativecommons.org/ns#Distribution" />
        <cc:requires
           rdf:resource="http://creativecommons.org/ns#Notice" />
        <cc:requires
           rdf:resource="http://creativecommons.org/ns#Attribution" />
        <cc:permits
           rdf:resource="http://creativecommons.org/ns#DerivativeWorks" />
        <cc:requires
           rdf:resource="http://creativecommons.org/ns#ShareAlike" />
      </cc:License>
    </rdf:RDF>
  </metadata>
  <defs
     id="defs6" />
  <path
     style="fill:#8d6113;fill-opacity:1;stroke:none;stroke-width:0.76196074px;stroke-linecap:butt;stroke-linejoin:miter;stroke-opacity:1"
     d="m 12.234029,45.108718 c -1.874877,-5.920663 16.627533,-19.210452 35.51512,-19.04902 18.887586,0.161433 41.326685,9.201645 41.00382,16.627534 C 88.430104,50.113121 70.993041,60.660274 68.412491,59.314766 62.672029,56.321668 40.184498,55.537963 31.605912,61.413386 27.815291,64.009561 13.479399,49.041465 12.234029,45.108718 Z"
     id="path987" />
  <path
     style="fill:#efb447;fill-opacity:1;stroke:none;stroke-width:0.66627228px;stroke-linecap:butt;stroke-linejoin:miter;stroke-opacity:1"
     d="M 16.095123,44.361032 C 14.409774,39.324968 31.041818,28.020788 48.020102,28.158101 64.998385,28.295414 85.169168,35.984941 84.87894,42.301337 84.588713,48.617734 68.914322,57.589052 66.594634,56.444574 61.434462,53.89867 41.220144,53.232058 33.508747,58.229642 30.101312,60.437926 17.214601,47.706192 16.095123,44.361032 Z"
     id="path987-5" />
  <path
     style="fill:#8d6113;fill-opacity:1;stroke:none;stroke-width:0.85781491px;stroke-linecap:butt;stroke-linejoin:miter;stroke-opacity:1"
     d="m 4.3715413,76.152511 c -5.997435,-5.088732 3.714143,-31.600554 10.9044257,-32.895019 7.151041,-1.2874 25.383206,8.413665 16.720121,14.720975 C 18.550864,67.767498 7.4896393,78.619335 4.3715413,76.152511 Z"
     id="path968-7" />
  <path
     style="fill:#efb447;fill-opacity:1;stroke:none;stroke-width:0.76196074px;stroke-linecap:butt;stroke-linejoin:miter;stroke-opacity:1"
     d="M 6.9974893,70.817008 C 1.6702203,66.296902 10.50847,47.317858 16.895294,46.16804 23.247262,45.024497 35.134133,52.299652 27.43908,57.902171 15.496255,66.597354 9.7671643,73.008184 6.9974893,70.817008 Z"
     id="path968" />
  <path
     style="fill:#8d6113;fill-opacity:1;stroke:none;stroke-width:0.85781491px;stroke-linecap:butt;stroke-linejoin:miter;stroke-opacity:1"
     d="M 95.62846,74.05389 C 101.62589,68.965158 91.914317,42.453336 84.724034,41.158872 77.572993,39.871471 59.340827,49.572536 68.003913,55.879847 81.449136,65.668878 92.510361,76.520715 95.62846,74.05389 Z"
     id="path968-7-3" />
  <path
     style="fill:#efb447;fill-opacity:1;stroke:none;stroke-width:0.76196074px;stroke-linecap:butt;stroke-linejoin:miter;stroke-opacity:1"
     d="M 93.002509,68.718388 C 98.32978,64.198282 89.491531,45.219238 83.104706,44.069419 76.752739,42.925876 64.654003,49.989167 72.349056,55.591685 84.29188,64.286868 90.232836,70.909564 93.002509,68.718388 Z"
     id="path968-5" />
  <path
     style="fill:#8d6113;fill-opacity:1;stroke:none;stroke-width:0.76196074px;stroke-linecap:butt;stroke-linejoin:miter;stroke-opacity:1"
     d="m 50.493498,52.140124 c 4.629066,0.02764 4.339283,-12.074279 17.757561,-22.206049 3.838863,-2.898619 -7.870725,-6.583752 -18.220189,-6.437407 -10.349463,0.146345 -24.118306,4.196707 -19.554984,6.760272 15.626432,8.778552 15.388546,21.855549 20.017612,21.883184 z"
     id="path1022" />
  <path
     style="fill:#efb447;fill-opacity:1;stroke:none;stroke-width:0.56251079px;stroke-linecap:butt;stroke-linejoin:miter;stroke-opacity:1"
     d="m 50.174832,47.528343 c 3.466709,0.02012 4.458657,-11.005963 14.507607,-18.379196 2.874925,-2.109424 -9.400392,-3.381462 -14.612276,-3.392441 -5.211883,-0.01098 -19.63386,2.114247 -16.216388,3.97984 11.702638,6.388449 12.854349,17.771687 16.321057,17.791797 z"
     id="path1022-6" />
</svg>

<svg xmlns:dc="http://purl.org/dc/elements/1.1/" xmlns:cc="http://creativecommons.org/ns#" xmlns:rdf="http://www.w3.org/1999/02/22-rdf-syntax-ns#" xmlns="http://www.w3.org/2000/svg" width="100" height="100"><metadata><rdf:RDF><cc:Work><dc:format>image/svg+xml</dc:format><dc:type rdf:resource="http://purl.org/dc/dcmitype/StillImage"/><dc:title/><dc:date>2021</dc:date><dc:creator><cc:Agent><dc:title>Timothée Giet</dc:title></cc:Agent></dc:creator><cc:license rdf:resource="http://creativecommons.org/licenses/by-sa/4.0/"/></cc:Work><cc:License rdf:about="http://creativecommons.org/licenses/by-sa/4.0/"><cc:permits rdf:resource="http://creativecommons.org/ns#Reproduction"/><cc:permits rdf:resource="http://creativecommons.org/ns#Distribution"/><cc:requires rdf:resource="http://creativecommons.org/ns#Notice"/><cc:requires rdf:resource="http://creativecommons.org/ns#Attribution"/><cc:permits rdf:resource="http://creativecommons.org/ns#DerivativeWorks"/><cc:requires rdf:resource="http://creativecommons.org/ns#ShareAlike"/></cc:License></rdf:RDF></metadata><path style="fill:#8d6113;fill-opacity:1;stroke:none;stroke-width:.76196074px;stroke-linecap:butt;stroke-linejoin:miter;stroke-opacity:1" d="M12.234 45.109c-1.875-5.92 16.628-19.21 35.515-19.05 18.888.162 41.327 9.202 41.004 16.628-.323 7.426-17.76 17.973-20.34 16.628-5.741-2.993-28.229-3.777-36.807 2.098-3.79 2.597-18.127-12.372-19.372-16.304z"/><path style="fill:#efb447;fill-opacity:1;stroke:none;stroke-width:.66627228px;stroke-linecap:butt;stroke-linejoin:miter;stroke-opacity:1" d="M16.095 44.361c-1.685-5.036 14.947-16.34 31.925-16.203 16.978.137 37.15 7.827 36.859 14.143-.29 6.317-15.965 15.288-18.284 14.144-5.16-2.546-25.375-3.213-33.086 1.785C30.1 60.438 17.215 47.706 16.095 44.36z"/><path style="fill:#8d6113;fill-opacity:1;stroke:none;stroke-width:.85781491px;stroke-linecap:butt;stroke-linejoin:miter;stroke-opacity:1" d="M4.372 76.153c-5.998-5.09 3.714-31.601 10.904-32.896 7.151-1.287 25.383 8.414 16.72 14.721C18.551 67.768 7.49 78.62 4.372 76.153z"/><path style="fill:#efb447;fill-opacity:1;stroke:none;stroke-width:.76196074px;stroke-linecap:butt;stroke-linejoin:miter;stroke-opacity:1" d="M6.997 70.817c-5.327-4.52 3.511-23.5 9.898-24.649 6.352-1.144 18.24 6.132 10.544 11.734C15.496 66.597 9.767 73.008 6.997 70.817z"/><path style="fill:#8d6113;fill-opacity:1;stroke:none;stroke-width:.85781491px;stroke-linecap:butt;stroke-linejoin:miter;stroke-opacity:1" d="M95.628 74.054c5.998-5.089-3.714-31.6-10.904-32.895-7.151-1.288-25.383 8.414-16.72 14.72 13.445 9.79 24.506 20.642 27.624 18.175z"/><path style="fill:#efb447;fill-opacity:1;stroke:none;stroke-width:.76196074px;stroke-linecap:butt;stroke-linejoin:miter;stroke-opacity:1" d="M93.003 68.718c5.327-4.52-3.511-23.499-9.898-24.649-6.352-1.143-18.451 5.92-10.756 11.523 11.943 8.695 17.884 15.318 20.654 13.126z"/><path style="fill:#8d6113;fill-opacity:1;stroke:none;stroke-width:.76196074px;stroke-linecap:butt;stroke-linejoin:miter;stroke-opacity:1" d="M50.493 52.14c4.63.028 4.34-12.074 17.758-22.206 3.839-2.899-7.87-6.584-18.22-6.437-10.35.146-24.118 4.196-19.555 6.76 15.626 8.778 15.388 21.855 20.017 21.883z"/><path style="fill:#efb447;fill-opacity:1;stroke:none;stroke-width:.56251079px;stroke-linecap:butt;stroke-linejoin:miter;stroke-opacity:1" d="M50.175 47.528c3.467.02 4.458-11.006 14.507-18.379 2.875-2.11-9.4-3.381-14.612-3.392-5.212-.011-19.634 2.114-16.216 3.98 11.702 6.388 12.854 17.771 16.32 17.791z"/></svg>
